X:2008
T:Blackthorn Stick, The
R:Jig
C:Trad.
O:Ireland
M:6/8
L:1/8
Q:1/8=240
K:G
"D7"d|"G"gfg "C"ege|"G"dBG "D"AGE|"G"DGG "D"FGA|"G"BGB "D"A2 d|
"G"gfg "C"age|"G"dBG "D"AGE|"G"DGG "D"FGA|"G"BGG G2:|
|:d|"G"edd gdd|edd gdd|edd gfg|"Am"edB "D7"A2 d|
"G"gfg "C"age|"G"dBG "D"AGE|"G"DGG "D"FGA|"G"BGG G2:|

